X: 4
T: Give Us A Drink Of Water
R: slip jig
M: 9/8
L: 1/8
K: Gmaj
GBd gdc BAG|Bcd eAA ABA|GBd gdc BAG|1BcA BGF G3:|2BcA BGF GBd||
~g2g efg fed|~g2g efg ~a2a|~g2g bag fed|efg agf ~g2g|
~g2g ~e2e ~f2f|~g2g efg ~a2a|bag agf ged|efg agf gdB|]


Tune 635	Setting 26851

